X: 3
T: Lord Mayo
Z: JACKB
S: https://thesession.org/tunes/638#setting25411
R: polka
M: 2/4
L: 1/8
K: Ador
|:E2|AG AB|e2 e/d/B/d/|eA AB/A/|G/A/G/F/ E2|
AG AB|e>f g>e|d2 B/d/B/G/|A2 :||
|:e2|a2 g/e/g/a/|b2 ba/g/|ed d/e/g|G>A Ge|
a2 g/e/g/a/|b2 ba/g/|ed d/e/g|a3e|
a2 g/e/g/a/|b2 ba/g/|ed d/e/g|G>A GE|
A/G/A/B/ d>B|AG g>e|d2 B/d/B/G/|A2||
